icons/cardiology.svg

<svg width="48" height="48" viewBox="0 0 48 48" fill="none" xmlns="http://www.w3.org/2000/svg">
<path fill-rule="evenodd" clip-rule="evenodd" d="M5 9C5 6.79086 6.79086 5 9 5H39C41.2091 5 43 6.79086 43 9V39C43 41.2091 41.2091 43 39 43H9C6.79086 43 5 41.2091 5 39V9ZM9 7C7.89543 7 7 7.89543 7 9V39C7 40.1046 7.89543 41 9 41H39C40.1046 41 41 40.1046 41 39V9C41 7.89543 40.1046 7 39 7H9ZM22.5074 11.5333C22.5074 10.981 22.9552 10.5333 23.5074 10.5333H27.5C28.0523 10.5333 28.5 10.981 28.5 11.5333V12.8793C28.5194 12.8966 28.5393 12.9145 28.5596 12.9331C28.745 13.1028 28.966 13.3277 29.2018 13.6146C30.8869 13.3175 32.9211 13.486 35.3468 14.3828L36.2575 14.7195L35.9478 15.6397C35.7247 16.3026 35.4792 16.8291 35.2557 17.3084L35.2497 17.3214C35.0233 17.8068 34.8197 18.2451 34.6344 18.7959L34.2734 19.8684L33.4886 19.4912C36.7449 22.5608 35.9154 27.1867 33.8812 30.7049C32.8211 32.5383 31.3746 34.2052 29.7906 35.4233C28.2226 36.6291 26.4234 37.467 24.6674 37.467C22.9056 37.467 21.149 36.6236 19.6358 35.4225C18.1084 34.2103 16.7345 32.5613 15.7248 30.7725C14.7179 28.9886 14.0387 27.0037 13.9751 25.1126C13.9379 24.0043 14.1138 22.9121 14.5693 21.9235C14.5598 21.9117 14.5496 21.8992 14.5387 21.8861C14.4399 21.767 14.2877 21.6003 14.0847 21.4249C13.6758 21.0713 13.0916 20.7076 12.3418 20.5875C12.0751 20.5447 11.8371 20.396 11.6818 20.175C11.5265 19.954 11.4672 19.6796 11.5174 19.4142C11.8517 17.6468 12.1536 16.5964 12.3873 15.9678C12.5046 15.6524 12.6092 15.4311 12.6993 15.2728C12.7447 15.1931 12.7882 15.1263 12.8298 15.07C12.8508 15.0416 12.8716 15.0155 12.8924 14.9913C12.9028 14.9791 12.9133 14.9675 12.9238 14.9562L12.9396 14.9396L12.9475 14.9315L12.9515 14.9275L12.9535 14.9255C12.9545 14.9246 12.9555 14.9236 13.6567 15.6365C13.9394 14.6773 13.9396 14.6774 13.9399 14.6775L13.942 14.6781L13.9464 14.6794L13.9605 14.6836L14.0088 14.6985C14.0497 14.7112 14.1078 14.7296 14.1805 14.7537C14.326 14.8017 14.5311 14.8723 14.7771 14.965C15.2666 15.1493 15.9298 15.4254 16.6105 15.7898C17.1356 16.0709 17.6941 16.4166 18.197 16.8294L17.1613 15.234C16.8663 14.7796 16.9867 14.173 17.4329 13.8658L20.6418 11.6565C21.0852 11.3513 21.6905 11.4517 22.0116 11.8837L22.5074 12.551V11.5333ZM17.5959 19.0705C17.4977 18.9298 17.3724 18.7836 17.2169 18.6325C16.8055 18.2324 16.2534 17.8672 15.6666 17.5531C15.1351 17.2686 14.6061 17.0423 14.1859 16.88C14.0478 17.2902 13.8689 17.9228 13.6648 18.8783C14.3947 19.1504 14.9721 19.5482 15.3929 19.912C15.4931 19.9986 15.5853 20.0841 15.6694 20.1664C15.7613 20.1065 15.8601 20.0432 15.9653 19.9774C16.0262 19.9393 16.0894 19.9002 16.1547 19.8604C16.572 19.52 17.0317 19.2777 17.5115 19.1118C17.5395 19.098 17.5676 19.0842 17.5959 19.0705ZM17.3281 21.4883C17.6125 21.3185 17.9318 21.1395 18.2732 20.9669C18.6264 20.859 19.0299 20.8052 19.4824 20.8036C20.3981 20.8004 21.4193 21.0134 22.4056 21.3236C23.3843 21.6314 24.2826 22.0202 24.9399 22.3347C24.9942 22.3607 25.0469 22.3861 25.0976 22.4109L24.4906 24.59L22.3055 25.5782L19.7263 24.9705L19.2677 26.9172L21.052 27.3376L20.4851 28.7706L22.3448 29.5063L23.1884 27.3739L23.791 27.1014L23.7459 27.2636L24.6607 29.3779L24.8369 31.9603L26.8322 31.8242L26.7092 30.0218L28.6183 29.8002L28.3877 27.8135L26.2694 28.0594L25.8624 27.1187L27.0247 22.9461L27.1004 22.8224L27.2441 22.6527L27.2478 22.6484L27.2632 22.6304C27.2774 22.6139 27.2994 22.5886 27.3286 22.5556C27.3868 22.4894 27.4735 22.3926 27.5836 22.2737C27.8044 22.0352 28.1163 21.7113 28.4804 21.3697C29.1052 20.7838 29.8008 20.2259 30.4141 19.908C30.6605 20.0407 30.8681 20.1423 31.0392 20.226C31.1147 20.2629 31.1831 20.2964 31.2445 20.3275C31.5061 20.4599 31.7018 20.5753 31.9854 20.8265C34.3388 22.9112 34.0729 26.3778 32.1498 29.7038C31.2132 31.3236 29.9367 32.788 28.5714 33.8379C27.1901 34.9001 25.8136 35.467 24.6674 35.467C23.527 35.467 22.2 34.9044 20.8791 33.856C19.5723 32.8188 18.3614 31.3747 17.4665 29.7894C16.5689 28.199 16.0238 26.5285 15.974 25.0454C15.9252 23.5925 16.3468 22.3696 17.3281 21.4883ZM14.6642 22.0491L14.6654 22.0509C14.6656 22.0512 14.6658 22.0516 14.6654 22.0509M14.6642 22.0491C14.6648 22.05 14.6651 22.0505 14.6654 22.0509C14.8172 22.2812 15.057 22.4381 15.3288 22.4853C15.6027 22.5329 15.8841 22.4643 16.1053 22.296M26.165 20.6334C26.1921 20.598 26.2201 20.5617 26.249 20.5247C26.6457 20.0163 27.2269 19.3483 27.9534 18.7373C29.1811 17.7048 31.0156 16.693 33.1049 17.2079C33.2154 16.9516 33.3257 16.715 33.4311 16.489L33.437 16.4762C33.5228 16.2924 33.6052 16.1153 33.6846 15.9363C30.2774 14.9328 28.1461 15.7382 26.8127 16.8409C25.6797 17.778 25.0266 19.011 24.7076 19.8522C25.1529 20.0816 25.5915 20.318 25.9591 20.5198C26.0304 20.559 26.0992 20.597 26.165 20.6334ZM26.9287 14.1827C26.6609 13.9964 26.5 13.6902 26.5 13.362V12.5333H24.5074V13.7426C24.5074 13.9463 24.4452 14.1452 24.3291 14.3125L23.6724 15.2594C23.4889 15.524 23.1891 15.6841 22.8671 15.6893C22.545 15.6946 22.2402 15.5444 22.0481 15.2859L20.9816 13.8508L19.3687 14.9612L20.3388 16.4555C20.5478 16.7775 20.5492 17.1792 20.3686 17.4959C20.3638 17.5146 20.3575 17.5414 20.3503 17.5776C20.3149 17.7568 20.2696 18.1023 20.2494 18.7199C20.3713 18.7373 20.5024 18.7393 20.7574 18.7393C21.2191 18.7393 21.8254 18.7415 22.8367 18.909C23.3029 17.7501 24.0631 16.6255 24.9205 15.7327C25.4993 15.13 26.1889 14.5651 26.9287 14.1827ZM13.6567 15.6365L13.9399 14.6775C13.5915 14.5748 13.2144 14.6689 12.9555 14.9236L13.6567 15.6365Z" fill="black"/>
</svg>

<svg
  xmlns="http://www.w3.org/2000/svg"
  width="24"
  height="24"
  viewBox="0 0 24 24"
  fill="none"
  stroke="currentColor"
  stroke-width="2"
  stroke-linecap="round"
  stroke-linejoin="round"
>
  <path
    fill-rule="evenodd"
    d="M5 9a4 4 0 0 1 4-4h30a4 4 0 0 1 4 4v30a4 4 0 0 1-4 4H9a4 4 0 0 1-4-4zm4-2a2 2 0 0 0-2 2v30a2 2 0 0 0 2 2h30a2 2 0 0 0 2-2V9a2 2 0 0 0-2-2zm13.507 4.533a1 1 0 0 1 1-1H27.5a1 1 0 0 1 1 1v1.346l.06.054c.185.17.406.395.642.682 1.685-.297 3.72-.129 6.145.768l.91.337-.31.92c-.222.663-.468 1.19-.691 1.668l-.006.013c-.227.486-.43.924-.616 1.475l-.36 1.072-.785-.377c3.256 3.07 2.426 7.696.392 11.214-1.06 1.833-2.506 3.5-4.09 4.718-1.568 1.206-3.368 2.044-5.124 2.044-1.761 0-3.518-.843-5.031-2.044-1.528-1.213-2.901-2.862-3.911-4.65-1.007-1.784-1.686-3.77-1.75-5.66-.037-1.109.139-2.2.594-3.19l-.03-.037a4 4 0 0 0-.454-.461c-.41-.354-.993-.717-1.743-.838a1 1 0 0 1-.825-1.173c.335-1.767.637-2.818.87-3.446a5 5 0 0 1 .312-.695 2 2 0 0 1 .193-.282l.032-.035.016-.016.008-.008.003-.005.002-.002c.002 0 .003-.001.704.711.282-.959.283-.959.283-.958h.002l.004.001.014.005.049.014.172.056a15.583 15.583 0 0 1 2.43 1.036 10 10 0 0 1 1.586 1.04l-1.036-1.596a1 1 0 0 1 .272-1.368l3.209-2.21a1 1 0 0 1 1.37.228l.495.667zm-4.911 7.538a3 3 0 0 0-.38-.439c-.41-.4-.963-.765-1.55-1.079-.53-.284-1.06-.51-1.48-.673-.138.41-.317 1.043-.521 1.998a5.7 5.7 0 0 1 2.004 1.288 19 19 0 0 1 .486-.306c.417-.34.877-.582 1.357-.748zm-.268 2.417c.285-.17.604-.348.945-.521a4.2 4.2 0 0 1 1.21-.163c.915-.004 1.936.21 2.923.52a20 20 0 0 1 2.692 1.087l-.607 2.179-2.186.988-2.579-.607-.458 1.946 1.784.42-.567 1.434 1.86.735.843-2.132.603-.273-.045.163.915 2.114.176 2.582 1.995-.136-.123-1.802 1.91-.222-.231-1.986-2.119.245-.407-.94 1.163-4.173.075-.124.144-.17.004-.004.015-.018.066-.074q.088-.102.255-.282c.22-.239.532-.563.896-.904.625-.586 1.32-1.144 1.934-1.462.246.133.454.234.625.318q.114.055.205.102c.262.132.458.247.741.498 2.354 2.085 2.088 5.552.165 8.878-.937 1.62-2.213 3.084-3.579 4.134-1.38 1.062-2.757 1.629-3.904 1.629-1.14 0-2.467-.563-3.788-1.611-1.307-1.037-2.518-2.481-3.413-4.067-.897-1.59-1.442-3.26-1.492-4.744-.049-1.453.373-2.675 1.354-3.557m-2.664.561.001.002m0-.002v.002a1 1 0 0 0 1.44.245m10.06-1.663.084-.108c.397-.509.978-1.177 1.704-1.788 1.228-1.032 3.063-2.044 5.152-1.53q.166-.38.326-.718l.006-.013c.086-.184.168-.36.248-.54-3.408-1.003-5.539-.198-6.872.905-1.133.937-1.786 2.17-2.105 3.011a55 55 0 0 1 1.457.781m.764-6.45a1 1 0 0 1-.429-.821v-.829h-1.993v1.21a1 1 0 0 1-.178.57l-.657.946a1 1 0 0 1-1.624.027l-1.066-1.435-1.613 1.11.97 1.495a1 1 0 0 1 .03 1.04l-.019.082c-.035.179-.08.524-.1 1.142.121.017.252.02.507.02.462 0 1.068.002 2.08.169.466-1.159 1.226-2.283 2.084-3.176.578-.603 1.268-1.168 2.008-1.55m-13.272 1.454.283-.96a1 1 0 0 0-.984.247z"
    clip-rule="evenodd"
  />
</svg>
